X:1
T:She Favorite, The
T:She Favorite, The
T:Nathaniel Kynaston (1683-1757)
C:Nathaniel Kynaston (1683-1757)
L:1/8
M:3/2
K:C
V:1 treble 
V:1
 c2 A4 c2 B2 A2 | ^G2 E4 B2 A2 G2 | c2 e2 BdBd A2 c2 | B2 c2 dcBA ^G2 B2 | c2 A4 c2 B2 A2 | %5
 ^G2 B4 d2 c2 B2 | ceac dfgB AefA | ^G2 E4 G2 A4 :: e2 c4 d2 ef g2 | g2 ag fedc Bc d2 | %10
 e2 B G2 F2 d2 E2 c2 | D2 c2 c3 B c3 d | edce dcBd cBAc | B2 ^F2 ^G2 A2 GBcd | e2 E2 d2 D2 c2 C2 | %15
 B2 B,2 A,2 ^G2 A4 :| %16

